!!!COM: Scriabin, Alexander
!!!OTL@@FR: Prélude en fa dièse majeur
!!!OTL@@EN: Prelude in F# Major
!!!OPR@@FR: 4 Préludes
!!!OPR@@EN: 4 Preludes
!!!OPS: 33
!!!ONM: 2
!!!ODT: 1900
!!!AGN: Prelude
**kern	**kern	**dynam
*staff2	*staff1	*staff1/2
*Ipiano	*Ipiano	*
*clefF4	*clefG2	*
*k[f#c#g#d#a#e#]	*k[f#c#g#d#a#e#]	*
*F#:	*F#:	*
*M6/8	*M6/8	*
=1	=1	=1
*^	*	*
4.A# 4.c#	2.f#	8r	.
.	.	8r	.
.	.	8ff#	.
4dn	.	8g##XL	.
.	.	8a#	.
8A# 8c#	.	8cc#J	.
=2	=2	=2	=2
2.G# 2.f#	4.B	8ee#L	.
.	.	8dd#	.
.	.	8g#J	.
.	4.d#	8a#L	.
.	.	8cc#	.
.	.	8bJ	.
*v	*v	*	*
=3	=3	=3
[2.G# [2.dn [2.f#	4a#	.
.	8f#	.
.	[4.a#	.
=4	=4	=4
2.G#] 2.d] 2.f#]	4a#]	.
.	8f#	.
.	4.a#	.
=5	=5	=5
*^	*	*
4.F# 4.An	2.dn	8r	.
.	.	8r	.
.	.	8ddn	.
4B-X	.	8e#L	.
.	.	8f#	.
8F# 8A	.	8anJ	.
=6	=6	=6	=6
2.En 2.dn	4.Gn	8cc#L	.
.	.	8b	.
.	.	8enJ	.
.	4.Bn	8f#L	.
.	.	8an	.
.	.	8gnJ	.
*v	*v	*	*
=7	=7	=7
[2.En [2.B-X [2.dn	4f#	.
.	8dn	.
.	[4.f#	.
=8	=8	=8
2.E] 2.B-] 2.d]	4f#]	.
.	8dn	.
.	[4.f#	.
=9	=9	=9
*^	*	*
2.E-X 2.B-X	[2.d-X	8f#]	.
.	.	8r	.
.	.	8ffn	.
.	.	8f#XL	.
.	.	8gn	.
.	.	8b-XJ	.
=10	=10	=10	=10
*	*	*^	*
2.BB-X 2.Gn	4.d-]	2.gn	[4.ffn	.
.	4.d-X	.	4ff]	.
.	.	.	8ee-X	.
=11	=11	=11	=11	=11
*	*^	*	*	*
4.BBn/	4.Gn	8enL	4.gn	8cc#L	.
.	.	8.dn	.	8ddn	.
.	.	.	.	8ff#XJ	.
.	.	16dJk	.	.	.
[4.BB/	[4.F#	[4.d	[4.f# [4.dd	[4.aan	.
=12	=12	=12	=12	=12	=12
4.BB/]	4F#]	4.d]	4f#] 4dd_	4aa]	.
.	8Gn	.	[8gn 8dd]	8ggn	.
4.BB/	4.G	4.dn	8g]	8ddnL	.
.	.	.	8rc	8b	.
.	.	.	8rc	8gJ	.
*	*v	*v	*	*	*
=13	=13	=13	=13	=13
[2.C# [2.B	[4.Gn	8f#L	4.raa	.
.	.	8en	.	.
.	.	[8e#XJ	.	.
.	4G]	4.e#_	[4.dd#X	.
.	8G#X	.	.	.
=14	=14	=14	=14	=14
2.C#] 2.B]	4.d#	4.e#]	4dd#]	.
.	.	.	[8a#	.
.	4.dn	4.e#	4a#]	.
.	.	.	8g#	.
*	*	*v	*v	*
=15	=15	=15	=15
2.E-X 2.B-X	[2.d-X	8r	.
.	.	8r	.
.	.	8ffn	.
.	.	8g-XL	.
.	.	8gn	.
.	.	8b-XJ	.
=16	=16	=16	=16
*	*	*^	*
2.BB-X 2.Gn	4.d-]	2.gn	[4.ffn	.
.	4.d-X	.	4ff]	.
.	.	.	8ee-X	.
=17	=17	=17	=17	=17
*	*^	*	*	*
4.Cn/	4.A-X	8fnL	4.a-X	8ddnL	.
.	.	8.e-X	.	8ee-X	.
.	.	.	.	8ggnJ	.
.	.	16e-Jk	.	.	.
[4.C/	[4.Gn	[4.e-	[4.gn [4.ee-	[4.bb-X	.
=18	=18	=18	=18	=18	=18
4.C/]	4G]	4.e-]	4g] 4ee-_	4bb-]	.
.	8A-X	.	[8a-X 8ee-]	8aa-X	.
4.Cn/	4.A-	4.e-X	8a-]	8ee-XL	.
.	.	.	8rc	8ccn	.
.	.	.	8rc	8a-J	.
*	*v	*v	*	*	*
=19	=19	=19	=19	=19
2.Dn 2.cn	4.A-X	8gnL	4.raa	.
.	.	8.fn	.	.
.	.	[16f#XJk	.	.
.	4An	4.f#]	[4.een	.
.	8A#X	.	.	.
=20	=20	=20	=20	=20
2.GGn 2.B	[4.C#X	2.g#	4ee#	.
.	.	.	[8ee-X	.
.	4C#]	.	4ee-]	.
.	8Dn	.	8ddn	.
*v	*v	*	*	*
*	*v	*v	*
=21	=21	=21
2.r	2.r	.
=22	=22	=22
*^	*^	*
[2.C# [2.B	[4.Gn	8f#L	4.raa	.
.	.	8en	.	.
.	.	[8e#XJ	.	.
.	4G]	4.e#_	[4.dd#X	.
.	8G#X	.	.	.
=23	=23	=23	=23	=23
2.C#] 2.B]	2.d#	4.e#]	4dd#]	.
.	.	.	[8a#	.
.	.	4.e#	4a#]	.
.	.	.	8g#	.
*v	*v	*	*	*
=24	=24	=24	=24
[2.En [2.A# [2.c##X	8f#	4f#	.
.	4rc	.	.
.	.	8c##X	.
.	4.rc	[4.f#	.
*	*v	*v	*
=25	=25	=25
2.E] 2.A#] 2.c##]	4f#]	.
.	8c##X	.
.	[4.f#	.
=26	=26	=26
*	*^	*
2.D# 2.B	2.d#	4.f#]	.
.	.	[4.f#	.
=27	=27	=27	=27
2.BB 2.F#	2.d# 2.f#	4.f#]	.
.	.	4.g#	.
=28	=28	=28	=28
[2.FF# [2.C# [2.A#	[2.c# [2.f#	[2.cc#	.
=29	=29	=29	=29
2.FF#] 2.C#] 2.A#]	2.c#] 2.f#]	2.cc#]	.
*	*v	*v	*
==	==	==
*-	*-	*-
!!!system-decoration: {(*)}
!!!ENC: Bryan Jacob Bell
!!!END: November 2021 to April 2022
!!!PED: Konstantin Igumnov and Yakov Milstein
!!!PTL: A.N. Skryabin: Polnoe sobranie sochinenii dlia fortepiano (Muzgiz)
